X: 26688
T: Migoni's
R: jig
M: 6/8
K: Edorian
|:EFB BAB|dcB A2 G|GFG EFG|BAG AGF|
EFB BAB|dcB A2 A|dcA BGF|EDD E3:|
|:.B2 B .A2 A|.G2 G .F2 F|E3 DEF|FED EDE|
BGB AFA|GEG FDF|E3 DEG|1 GFD E3:|2 GFD E2 e||
|:ede g2 e|ede B2 e|ede ged|BAG AGA|
ede g2 e|ede B2 e|ede gd=c|1 AGF G2 e:|2 AGF G3||

